X:1
T:Long Campaign, The
M:4/4
L:1/8
F:Bill Black [http://www.capeirish.com/webabc]
Q:100
R:Reel
K:Dmix
DFAd cAGE | FGAB (3cBA d2 | DFAd cAGE | =F3F EDCE |
DFAd cAGE | FGAB (3cBA d2 | a3g efge | age^c d4 :|
| Ad (3ddd ABcA | fgaf ge^ce | Ad (3ddd ABcA | G2FG EFGE |
Ad (3ddd ABcA | fgaf ge^ce | a3g efge | age^c d4 :||

